static/cards/FrenchDeck/default/card_spades_08.svg

<svg width="219" height="304" viewBox="0 0 219 304" fill="none" xmlns="http://www.w3.org/2000/svg">
<g filter="url(#filter0_d_18_636)">
<g clip-path="url(#clip0_18_636)">
<rect x="8" y="4" width="203" height="288" rx="10" fill="white"/>
<path d="M24.9199 44.5806C19.2744 44.5806 15.3506 41.2974 15.3506 36.5728C15.3506 33.2695 17.5728 30.4868 20.876 29.686V29.4858C18.1934 28.605 16.4316 26.1826 16.4316 23.3999C16.4316 19.1958 20.0352 16.0928 25 16.0928C29.9648 16.0928 33.5884 19.1958 33.5884 23.3999C33.5884 26.1426 31.7666 28.605 29.124 29.4858V29.686C32.3872 30.4668 34.6294 33.2695 34.6294 36.5327C34.6294 41.2373 30.5854 44.5806 24.9199 44.5806ZM25 28.3047C28.043 28.3047 30.1851 26.3628 30.1851 23.6401C30.1851 20.9375 28.063 19.0557 25 19.0557C21.957 19.0557 19.8149 20.9575 19.8149 23.6401C19.8149 26.3428 21.9771 28.3047 25 28.3047ZM25 41.6577C28.6235 41.6577 31.2261 39.4756 31.2261 36.4326C31.2261 33.3896 28.6235 31.1675 25 31.1675C21.3765 31.1675 18.7739 33.3696 18.7739 36.4326C18.7739 39.4756 21.3765 41.6577 25 41.6577Z" fill="#211C1D"/>
<path d="M24.2375 72C24.0275 72 23.8572 71.8365 23.8572 71.6348C23.8572 71.2053 24.9342 68.3825 25.1943 66.4832C25.2256 66.2548 24.9357 66.1637 24.8047 66.3495C24.177 67.2399 23.5441 68.1922 21.8225 68.2149C18.615 68.2572 16.7672 65.2101 17.7761 62.4373C18.2708 61.0778 25.0754 52 26 52C26.9245 52 33.7292 61.0778 34.2239 62.4373C35.2328 65.2101 33.385 68.2572 30.1775 68.2149C28.4559 68.1922 27.823 67.2399 27.1953 66.3495C27.0643 66.1637 26.7744 66.2548 26.8057 66.4832C27.0658 68.3825 28.1428 71.2053 28.1428 71.6348C28.1428 71.8365 27.9725 72 27.7625 72H24.2375Z" fill="#211C1D"/>
<path d="M194.08 251.419C199.726 251.419 203.649 254.703 203.649 259.427C203.649 262.73 201.427 265.513 198.124 266.314L198.124 266.514C200.807 267.395 202.568 269.817 202.568 272.6C202.568 276.804 198.965 279.907 194 279.907C189.035 279.907 185.412 276.804 185.412 272.6C185.412 269.857 187.233 267.395 189.876 266.514L189.876 266.314C186.613 265.533 184.371 262.73 184.371 259.467C184.371 254.763 188.415 251.419 194.08 251.419ZM194 267.695C190.957 267.695 188.815 269.637 188.815 272.36C188.815 275.062 190.937 276.944 194 276.944C197.043 276.944 199.185 275.042 199.185 272.36C199.185 269.657 197.023 267.695 194 267.695ZM194 254.342C190.376 254.342 187.774 256.524 187.774 259.567C187.774 262.61 190.376 264.833 194 264.833C197.624 264.833 200.226 262.63 200.226 259.567C200.226 256.524 197.624 254.342 194 254.342Z" fill="#211C1D"/>
<path d="M194.762 224C194.973 224 195.143 224.164 195.143 224.365C195.143 224.795 194.066 227.617 193.806 229.517C193.774 229.745 194.064 229.836 194.195 229.65C194.823 228.76 195.456 227.808 197.178 227.785C200.385 227.743 202.233 230.79 201.224 233.563C200.729 234.922 193.925 244 193 244C192.075 244 185.271 234.922 184.776 233.563C183.767 230.79 185.615 227.743 188.823 227.785C190.544 227.808 191.177 228.76 191.805 229.65C191.936 229.836 192.226 229.745 192.194 229.517C191.934 227.617 190.857 224.795 190.857 224.365C190.857 224.164 191.027 224 191.238 224L194.762 224Z" fill="#211C1D"/>
<path d="M61.353 76C60.8588 76 60.4582 75.6076 60.4582 75.1235C60.4582 74.0926 62.9923 67.318 63.6043 62.7596C63.6779 62.2115 62.9958 61.993 62.6876 62.4389C61.2105 64.5759 59.7215 66.8613 55.6706 66.9157C48.1234 67.0172 43.7757 59.7041 46.1497 53.0496C47.3137 49.7867 63.3245 28 65.5 28C67.6754 28 83.6864 49.7867 84.8503 53.0496C87.2243 59.7041 82.8766 67.0172 75.3294 66.9157C71.2785 66.8613 69.7895 64.5759 68.3124 62.4389C68.0042 61.993 67.3221 62.2115 67.3957 62.7596C68.0077 67.318 70.5418 74.0926 70.5418 75.1235C70.5418 75.6076 70.1412 76 69.647 76H61.353Z" fill="#211C1D"/>
<path d="M61.353 220C60.8588 220 60.4582 220.392 60.4582 220.877C60.4582 221.907 62.9923 228.682 63.6043 233.24C63.6779 233.789 62.9958 234.007 62.6876 233.561C61.2105 231.424 59.7215 229.139 55.6706 229.084C48.1234 228.983 43.7757 236.296 46.1497 242.95C47.3137 246.213 63.3245 268 65.5 268C67.6754 268 83.6864 246.213 84.8503 242.95C87.2243 236.296 82.8766 228.983 75.3294 229.084C71.2785 229.139 69.7895 231.424 68.3124 233.561C68.0042 234.007 67.3221 233.789 67.3957 233.24C68.0077 228.682 70.5418 221.907 70.5418 220.877C70.5418 220.392 70.1412 220 69.647 220H61.353Z" fill="#211C1D"/>
<path d="M149.353 76C148.859 76 148.458 75.6076 148.458 75.1235C148.458 74.0926 150.992 67.318 151.604 62.7596C151.678 62.2115 150.996 61.993 150.688 62.4389C149.211 64.5759 147.721 66.8613 143.671 66.9157C136.123 67.0172 131.776 59.7041 134.15 53.0496C135.314 49.7867 151.325 28 153.5 28C155.675 28 171.686 49.7867 172.85 53.0496C175.224 59.7041 170.877 67.0172 163.329 66.9157C159.279 66.8613 157.789 64.5759 156.312 62.4389C156.004 61.993 155.322 62.2115 155.396 62.7596C156.008 67.318 158.542 74.0926 158.542 75.1235C158.542 75.6076 158.141 76 157.647 76H149.353Z" fill="#211C1D"/>
<path d="M61.353 172C60.8588 172 60.4582 171.608 60.4582 171.123C60.4582 170.093 62.9923 163.318 63.6043 158.76C63.6779 158.211 62.9958 157.993 62.6876 158.439C61.2105 160.576 59.7215 162.861 55.6706 162.916C48.1234 163.017 43.7757 155.704 46.1497 149.05C47.3137 145.787 63.3245 124 65.5 124C67.6754 124 83.6864 145.787 84.8503 149.05C87.2243 155.704 82.8766 163.017 75.3294 162.916C71.2785 162.861 69.7895 160.576 68.3124 158.439C68.0042 157.993 67.3221 158.211 67.3957 158.76C68.0077 163.318 70.5418 170.093 70.5418 171.123C70.5418 171.608 70.1412 172 69.647 172H61.353Z" fill="#211C1D"/>
<path d="M105.353 124C104.859 124 104.458 123.608 104.458 123.123C104.458 122.093 106.992 115.318 107.604 110.76C107.678 110.211 106.996 109.993 106.688 110.439C105.211 112.576 103.721 114.861 99.6706 114.916C92.1234 115.017 87.7757 107.704 90.1497 101.05C91.3137 97.7867 107.325 76 109.5 76C111.675 76 127.686 97.7867 128.85 101.05C131.224 107.704 126.877 115.017 119.329 114.916C115.279 114.861 113.789 112.576 112.312 110.439C112.004 109.993 111.322 110.211 111.396 110.76C112.008 115.318 114.542 122.093 114.542 123.123C114.542 123.608 114.141 124 113.647 124H105.353Z" fill="#211C1D"/>
<path d="M105.353 172C104.859 172 104.458 172.392 104.458 172.877C104.458 173.907 106.992 180.682 107.604 185.24C107.678 185.789 106.996 186.007 106.688 185.561C105.211 183.424 103.721 181.139 99.6706 181.084C92.1234 180.983 87.7757 188.296 90.1497 194.95C91.3137 198.213 107.325 220 109.5 220C111.675 220 127.686 198.213 128.85 194.95C131.224 188.296 126.877 180.983 119.329 181.084C115.279 181.139 113.789 183.424 112.312 185.561C112.004 186.007 111.322 185.789 111.396 185.24C112.008 180.682 114.542 173.907 114.542 172.877C114.542 172.392 114.141 172 113.647 172H105.353Z" fill="#211C1D"/>
<path d="M149.353 172C148.859 172 148.458 171.608 148.458 171.123C148.458 170.093 150.992 163.318 151.604 158.76C151.678 158.211 150.996 157.993 150.688 158.439C149.211 160.576 147.721 162.861 143.671 162.916C136.123 163.017 131.776 155.704 134.15 149.05C135.314 145.787 151.325 124 153.5 124C155.675 124 171.686 145.787 172.85 149.05C175.224 155.704 170.877 163.017 163.329 162.916C159.279 162.861 157.789 160.576 156.312 158.439C156.004 157.993 155.322 158.211 155.396 158.76C156.008 163.318 158.542 170.093 158.542 171.123C158.542 171.608 158.141 172 157.647 172H149.353Z" fill="#211C1D"/>
<path d="M149.353 220C148.859 220 148.458 220.392 148.458 220.877C148.458 221.907 150.992 228.682 151.604 233.24C151.678 233.789 150.996 234.007 150.688 233.561C149.211 231.424 147.721 229.139 143.671 229.084C136.123 228.983 131.776 236.296 134.15 242.95C135.314 246.213 151.325 268 153.5 268C155.675 268 171.686 246.213 172.85 242.95C175.224 236.296 170.877 228.983 163.329 229.084C159.279 229.139 157.789 231.424 156.312 233.561C156.004 234.007 155.322 233.789 155.396 233.24C156.008 228.682 158.542 221.907 158.542 220.877C158.542 220.392 158.141 220 157.647 220H149.353Z" fill="#211C1D"/>
</g>
</g>
<defs>
<filter id="filter0_d_18_636" x="0" y="0" width="219" height="304" filterUnits="userSpaceOnUse" color-interpolation-filters="sRGB">
<feFlood flood-opacity="0" result="BackgroundImageFix"/>
<feColorMatrix in="SourceAlpha" type="matrix" values="0 0 0 0 0 0 0 0 0 0 0 0 0 0 0 0 0 0 127 0" result="hardAlpha"/>
<feOffset dy="4"/>
<feGaussianBlur stdDeviation="4"/>
<feComposite in2="hardAlpha" operator="out"/>
<feColorMatrix type="matrix" values="0 0 0 0 0.614771 0 0 0 0 0.70094 0 0 0 0 0.806257 0 0 0 1 0"/>
<feBlend mode="normal" in2="BackgroundImageFix" result="effect1_dropShadow_18_636"/>
<feBlend mode="normal" in="SourceGraphic" in2="effect1_dropShadow_18_636" result="shape"/>
</filter>
<clipPath id="clip0_18_636">
<rect x="8" y="4" width="203" height="288" rx="10" fill="white"/>
</clipPath>
</defs>
</svg>

<svg xmlns="http://www.w3.org/2000/svg" width="219" height="304" fill="none" viewBox="0 0 219 304"><g filter="url(#a)"><g clip-path="url(#b)"><rect width="203" height="288" x="8" y="4" fill="#fff" rx="10"/><path fill="#211c1d" d="M24.92 44.58c-5.646 0-9.57-3.283-9.57-8.007 0-3.303 2.223-6.086 5.526-6.887v-.2c-2.683-.881-4.444-3.303-4.444-6.086 0-4.204 3.603-7.307 8.568-7.307s8.588 3.103 8.588 7.307c0 2.743-1.821 5.205-4.464 6.086v.2c3.263.78 5.505 3.584 5.505 6.847 0 4.704-4.044 8.048-9.71 8.048M25 28.306c3.043 0 5.185-1.942 5.185-4.665 0-2.703-2.122-4.584-5.185-4.584-3.043 0-5.185 1.901-5.185 4.584 0 2.703 2.162 4.665 5.185 4.665m0 13.353c3.624 0 6.226-2.182 6.226-5.225S28.624 31.168 25 31.168s-6.226 2.202-6.226 5.265c0 3.043 2.602 5.225 6.226 5.225M24.238 72a.373.373 0 0 1-.38-.365c0-.43 1.076-3.253 1.336-5.152.032-.228-.258-.32-.39-.133-.627.89-1.26 1.842-2.981 1.865-3.208.042-5.056-3.005-4.047-5.778C18.271 61.077 25.076 52 26 52s7.73 9.078 8.224 10.437c1.009 2.773-.839 5.82-4.046 5.778-1.722-.023-2.355-.975-2.983-1.865-.13-.186-.42-.095-.39.133.26 1.9 1.338 4.722 1.338 5.152 0 .201-.17.365-.38.365zM194.08 251.419c5.646 0 9.569 3.284 9.569 8.008 0 3.303-2.222 6.086-5.525 6.887v.2c2.683.881 4.444 3.303 4.444 6.086 0 4.204-3.603 7.307-8.568 7.307s-8.588-3.103-8.588-7.307c0-2.743 1.821-5.205 4.464-6.086v-.2c-3.263-.781-5.505-3.584-5.505-6.847 0-4.704 4.044-8.048 9.709-8.048m-.08 16.276c-3.043 0-5.185 1.942-5.185 4.665 0 2.702 2.122 4.584 5.185 4.584 3.043 0 5.185-1.902 5.185-4.584 0-2.703-2.162-4.665-5.185-4.665m0-13.353c-3.624 0-6.226 2.182-6.226 5.225s2.602 5.266 6.226 5.266 6.226-2.203 6.226-5.266c0-3.043-2.602-5.225-6.226-5.225M194.762 224c.211 0 .381.164.381.365 0 .43-1.077 3.252-1.337 5.152-.032.228.258.319.389.133.628-.89 1.261-1.842 2.983-1.865 3.207-.042 5.055 3.005 4.046 5.778C200.729 234.922 193.925 244 193 244s-7.729-9.078-8.224-10.437c-1.009-2.773.839-5.82 4.047-5.778 1.721.023 2.354.975 2.982 1.865.131.186.421.095.389-.133-.26-1.9-1.337-4.722-1.337-5.152 0-.201.17-.365.381-.365zM61.353 76a.886.886 0 0 1-.895-.876c0-1.031 2.534-7.806 3.146-12.364.074-.548-.608-.767-.916-.321-1.477 2.137-2.967 4.422-7.017 4.477-7.548.101-11.895-7.212-9.521-13.866C47.314 49.787 63.325 28 65.5 28s18.186 21.787 19.35 25.05c2.374 6.654-1.973 13.967-9.52 13.866-4.052-.055-5.54-2.34-7.018-4.477-.308-.446-.99-.227-.916.32.612 4.559 3.146 11.334 3.146 12.365 0 .484-.4.876-.895.876zM61.353 220a.886.886 0 0 0-.895.877c0 1.03 2.534 7.805 3.146 12.363.074.549-.608.767-.916.321-1.477-2.137-2.967-4.422-7.017-4.477-7.548-.101-11.895 7.212-9.521 13.866C47.314 246.213 63.325 268 65.5 268s18.186-21.787 19.35-25.05c2.374-6.654-1.973-13.967-9.52-13.866-4.052.055-5.54 2.34-7.018 4.477-.308.446-.99.228-.916-.321.612-4.558 3.146-11.333 3.146-12.363 0-.485-.4-.877-.895-.877zM149.353 76a.886.886 0 0 1-.895-.876c0-1.031 2.534-7.806 3.146-12.364.074-.548-.608-.767-.916-.321-1.477 2.137-2.967 4.422-7.017 4.477-7.548.101-11.895-7.212-9.521-13.866C135.314 49.787 151.325 28 153.5 28s18.186 21.787 19.35 25.05c2.374 6.654-1.973 13.967-9.521 13.866-4.05-.055-5.54-2.34-7.017-4.477-.308-.446-.99-.227-.916.32.612 4.559 3.146 11.334 3.146 12.365a.886.886 0 0 1-.895.876zM61.353 172a.886.886 0 0 1-.895-.877c0-1.03 2.534-7.805 3.146-12.363.074-.549-.608-.767-.916-.321-1.477 2.137-2.967 4.422-7.017 4.477-7.548.101-11.895-7.212-9.521-13.866C47.314 145.787 63.325 124 65.5 124s18.186 21.787 19.35 25.05c2.374 6.654-1.973 13.967-9.52 13.866-4.052-.055-5.54-2.34-7.018-4.477-.308-.446-.99-.228-.916.321.612 4.558 3.146 11.333 3.146 12.363 0 .485-.4.877-.895.877zM105.353 124a.886.886 0 0 1-.895-.877c0-1.03 2.534-7.805 3.146-12.363.074-.549-.608-.767-.916-.321-1.477 2.137-2.967 4.422-7.017 4.477-7.548.101-11.895-7.212-9.521-13.866C91.314 97.787 107.325 76 109.5 76s18.186 21.787 19.35 25.05c2.374 6.654-1.973 13.967-9.521 13.866-4.05-.055-5.54-2.34-7.017-4.477-.308-.446-.99-.228-.916.321.612 4.558 3.146 11.333 3.146 12.363a.886.886 0 0 1-.895.877zM105.353 172a.886.886 0 0 0-.895.877c0 1.03 2.534 7.805 3.146 12.363.074.549-.608.767-.916.321-1.477-2.137-2.967-4.422-7.017-4.477-7.548-.101-11.895 7.212-9.521 13.866 1.164 3.263 17.175 25.05 19.35 25.05s18.186-21.787 19.35-25.05c2.374-6.654-1.973-13.967-9.521-13.866-4.05.055-5.54 2.34-7.017 4.477-.308.446-.99.228-.916-.321.612-4.558 3.146-11.333 3.146-12.363a.886.886 0 0 0-.895-.877zM149.353 172a.886.886 0 0 1-.895-.877c0-1.03 2.534-7.805 3.146-12.363.074-.549-.608-.767-.916-.321-1.477 2.137-2.967 4.422-7.017 4.477-7.548.101-11.895-7.212-9.521-13.866 1.164-3.263 17.175-25.05 19.35-25.05s18.186 21.787 19.35 25.05c2.374 6.654-1.973 13.967-9.521 13.866-4.05-.055-5.54-2.34-7.017-4.477-.308-.446-.99-.228-.916.321.612 4.558 3.146 11.333 3.146 12.363a.886.886 0 0 1-.895.877zM149.353 220a.886.886 0 0 0-.895.877c0 1.03 2.534 7.805 3.146 12.363.074.549-.608.767-.916.321-1.477-2.137-2.967-4.422-7.017-4.477-7.548-.101-11.895 7.212-9.521 13.866 1.164 3.263 17.175 25.05 19.35 25.05s18.186-21.787 19.35-25.05c2.374-6.654-1.973-13.967-9.521-13.866-4.05.055-5.54 2.34-7.017 4.477-.308.446-.99.228-.916-.321.612-4.558 3.146-11.333 3.146-12.363a.886.886 0 0 0-.895-.877z"/></g></g><defs><clipPath id="b"><rect width="203" height="288" x="8" y="4" fill="#fff" rx="10"/></clipPath><filter id="a" width="219" height="304" x="0" y="0" color-interpolation-filters="sRGB" filterUnits="userSpaceOnUse"><feFlood flood-opacity="0" result="BackgroundImageFix"/><feColorMatrix in="SourceAlpha" result="hardAlpha" values="0 0 0 0 0 0 0 0 0 0 0 0 0 0 0 0 0 0 127 0"/><feOffset dy="4"/><feGaussianBlur stdDeviation="4"/><feComposite in2="hardAlpha" operator="out"/><feColorMatrix values="0 0 0 0 0.614771 0 0 0 0 0.70094 0 0 0 0 0.806257 0 0 0 1 0"/><feBlend in2="BackgroundImageFix" result="effect1_dropShadow_18_636"/><feBlend in="SourceGraphic" in2="effect1_dropShadow_18_636" result="shape"/></filter></defs></svg>
